outputs/icons/communication/sticker_round.svg

<svg xmlns="http://www.w3.org/2000/svg" width="1200" height="1200" fill="none"><path fill="#000" fill-rule="evenodd" d="M150 285c0-74.559 60.441-135 135-135h630c74.56 0 135 60.441 135 135v263.195c0 33.35-12.345 65.52-34.655 90.31L685.22 1005.31A135 135 0 0 1 584.875 1050H285c-74.559 0-135-60.44-135-135zm90 22.5c0-37.279 30.221-67.5 67.5-67.5h585c37.28 0 67.5 30.221 67.5 67.5v163.125H780c-146.01 0-264.375 118.365-264.375 264.375v225H307.5c-37.279 0-67.5-30.22-67.5-67.5zm354.375 647.92a67.5 67.5 0 0 0 25.735-17.765L802.5 735l140.8-160.915a67.5 67.5 0 0 0 13.75-24.71H780c-102.52 0-185.625 83.105-185.625 185.625z"/></svg>

<svg width="1200" height="1200" viewBox="0 0 1200 1200" fill="none" xmlns="http://www.w3.org/2000/svg"><path fill-rule="evenodd" d="M150 285C150 210.441 210.441 150 285 150H915C989.56 150 1050 210.441 1050 285V548.195C1050 581.545 1037.655 613.715 1015.345 638.505L685.22 1005.31C659.62 1033.755 623.145 1050 584.875 1050H285C210.441 1050 150 989.56 150 915V285ZM240 307.5C240 270.221 270.221 240 307.5 240H892.5C929.78 240 960 270.221 960 307.5V470.625H780C633.99 470.625 515.625 588.99 515.625 735V960H307.5C270.221 960 240 929.78 240 892.5V307.5ZM594.375 955.42C604.12 951.635 612.965 945.595 620.11 937.655L802.5 735L943.3 574.085C949.625 566.855 954.285 558.42 957.05 549.375H780C677.48 549.375 594.375 632.48 594.375 735V955.42Z" fill="#1D1E23"/></svg>
